!!!OTL: Seanduine chill choc&szlig;in, S. 73
!!!id: I0542
**kern
*clefG2
*k[]
*G:
{8b
=1
8cc
8cc
8cc
8b
8a
8g
=2
8g
8b
8g
16e
16d
8d}
=3
{8d
=4
4g
8g
8a
8cc
8b
=5
4a
8a
4a}
=6
{16b
16b
=7
8cc
8cc
8cc
8b
8a
8g
=8
8g
8b
8g
16e
16d
8d}
=9
{8d
=10
4g
8b
8g
8a
8a
=11
4g
8g
4g}
=12
{8g
=13
8g
8b
8cc
4dd
8dd
=14
4ee
8ee
8dd
8b
16.g}
=15
{32g
=16
8g
8cc
8cc
4cc
8cc
=17
8b
8g
8e
16g
16e
8d}
=18
{8d
=19
4cc
8cc
8b
8dd
8b
=20
8a
8g
8e
8g
8e}
=21
{8d
=22
4g
8b
8g
8a
8a
=23
4g
8g
4g}
==
*-
!!!minrhy: 32
!!!meters: 6/8 ]  ZZ[8
!!!cut: Seanduine chill choc&szlig;in, S. 73
!!!reg: Irland
!!!trd: O'SULLIVAN, Donal: Song of the Irish
!!!rhy1: X__  X__X__X__X__X__X__  X__X__X__X_X_X__   (x2)
!!!rhy2: X__  X___X__X__X__X__  X___X__X___
!!!key: I0542  32  G 6/8 ]  ZZ[8
!!!mod: SECHSTONSKALA DUR ?]  AMBITUS[9
!!!kad: -52-511-5-61
!!!akz: 431-6_1222_431-6_1111_1565_1431_4321_1111_
!!!fot: 'a__b__av_bs"c__d__e__bs"
!!!for: 'a__b__av_b__c__d__e__b__
!!!fok: '\__^a_\__^a_^__^d_^a_^a_
!! PHRAS[AUFTAKTIG]
!!!fkt: Liebeslied?, Jugendlied?
!! IRISCHE V
!! PR[28] 2K[6] 2G[16] 3K[0] 3G[0] 4A[6] 4Ü[0] 5A[0] 6K[0] 6G[0]
!! 7K[0] 7G[0] 8A[0] MEHR[0] SI[28] ABS[32] SR[22] SP[6]
!! ST[6] 2k[6] 2g[28] 3k[9] 3g[0] 4d[0] 4ü[0] 5d[0] 6k[0] 6g[0]
!! 7k[0] 7g[0] 8d[0] mehr[0] si[44] dm[-16] sr[34] sp[9]
!! 1F[6] 2F[82] 3F[12] 4F[0] LF[0] 2P[0] 3P[0] 4P[0] TRI[0] DF[3] AB[33]
!! TF[0] U3K[0] U3[0] U4[0] U4Ü[0] U5[0] U6K[0] U6[0] U7K[0] U7[0]
!! N1[6] N2K[0] N2[0] N3K[9] N3[0] N4[15] N4Ü[0] N5[24] N6K[18] N6[0]
!!!n7k: 15] N7[0] O1[12] O2K[0] O2[0] O3K[0] O3[0] HÖ[0
!!!RNB: symbol: &szlig; = sz ligature (UTF-8: ÃŸ)
